Obsidian-SemiLight/actions/16s/distribute-vertical-page.svg

<svg viewBox="0 0 16 16" xmlns="http://www.w3.org/2000/svg"><path d="m1 1v10 2l2 2h1 11v-14zm1 1h12v12h-10v-2h-2zm2 1v4h8v-4zm1 1h6v2h-6zm-1 5v2h1v-1h6v2h-6v1h7v-4z" fill="#4d4d4d"/></svg>

<svg xmlns="http://www.w3.org/2000/svg" viewBox="0 0 16 16">
  <defs id="defs3051">
    <style type="text/css" id="current-color-scheme">
      .ColorScheme-Text {
        color:#4d4d4d;
      }
      </style>
  </defs>
 <path style="fill:currentColor;fill-opacity:1;stroke:none" 
     d="M 1 1 L 1 11 L 1 13 L 3 15 L 4 15 L 15 15 L 15 1 L 1 1 z M 2 2 L 14 2 L 14 14 L 4 14 L 4 12 L 2 12 L 2 2 z M 4 3 L 4 7 L 12 7 L 12 3 L 4 3 z M 5 4 L 11 4 L 11 6 L 5 6 L 5 4 z M 4 9 L 4 11 L 5 11 L 5 10 L 11 10 L 11 12 L 5 12 L 5 13 L 12 13 L 12 9 L 4 9 z "
     class="ColorScheme-Text"
     />
</svg>
